X:167
T:On the Danforth
C: Keith Murphy 2001 
N:Keith's book of tunes, Black Isle Music, is available for
N:$15 plus $2 shipping for any number of copies from
N:Keith Murphy and Rebecca Tracy
N:Blackislemusic.com
N:104 Washington St, Brattleboro, VT 05301
M:C|
K:A
|: "A" c2 cd c2A2 | "E" B2c2 "D"F4|"F#m" A2>B2 c2 BA | "E" B2c2c2B2|
"A" c2 cd c2A2 | "E" B2c2 "D" F4|"F#m" A2>B2 c2 BA | "E" B2G2 "A" A4:|
|:"A" e2>f2 e2d2 | "A" c2A2 "Bm" B2d2 | "A/C#" c2 A2 "D" B2d2 | "A/E" cB A2 "E" B2E2|
"F#m" e2>f2 "E/G#" e2d2 |"A" c2A2 "D" B2d2 |"A" cB A2 "E" B2E2 | "A" A4 "D" A4:|
